icons/wally.svg

<svg xmlns="http://www.w3.org/2000/svg" viewBox="0 0 32 32"><path d="M8.45359,3.0837c-.89652-.11183-1.43743.47318-2.502,2.42951C4.49473,8.1961,2.06364,6.649,4.18682,10.78868a4.67325,4.67325,0,0,0,.75882,1.12188l5.74923-9.21817C9.85438,2.07759,9.182,3.13958,8.45359,3.0837Z" style="fill:#e65100"/><path d="M28.56462,29.985,22.583,21.70541a1.6661,1.6661,0,0,0-.57064-1.36277c-1.793-1.78856-2.68892-3.50917-1.90445-6.97457a3.93832,3.93832,0,0,0-1.32548-3.76564,28.98,28.98,0,0,0,.20544-3.221s-.67241-2.90649-2.3534-3.13c0,0-4.42642-2.23575-7.95643.27943C5.148,6.046,7.9496,5.71065,5.82043,8.89662a4.52818,4.52818,0,0,0-.4448.86695,7.06775,7.06775,0,0,0-1.23613.30788c-1.401.55918-1.34492,2.0689.5604,3.63455a.94675.94675,0,0,0,.2894.14754,8.18266,8.18266,0,0,1-.28951,2.198c-.59574,1.67476.85193,3.91019,3.02346,1.789a6.88863,6.88863,0,0,0,1.64783.94269,8.12893,8.12893,0,0,1,.70709,2.5218l-.55823,8.68Z" style="fill:#ffcc80"/><path d="M8.65136,9.01726a.80312.80312,0,0,1-.80747-.80548V6.33234a.80747.80747,0,0,1,1.61494,0V8.21178A.80312.80312,0,0,1,8.65136,9.01726Z" style="fill:#3e2723"/><path d="M13.9654,9.01726a.81449.81449,0,0,1-.81373-.81171v-1.867a.81373.81373,0,0,1,1.62746,0V8.28671A.802.802,0,0,1,13.9654,9.01726Z" style="fill:#3e2723"/><path d="M17.08243,14.15063a6.05784,6.05784,0,0,1-4.81868,4.5274,4.75066,4.75066,0,0,1-5.82727-3.13014,3.803,3.803,0,0,0,2.99819,3.679c.84,1.30208.35535,3.5475.30781,4.87376a5.37231,5.37231,0,0,1-.06145.83957L8.60033,29.985,14.02216,30c-.72392-.39718-1.02023-2.47622-1.14013-3.90144L12.803,24.69448a1.4147,1.4147,0,0,1,.97449-1.43232c2.79586-1.80933-.67251-1.78878-.67251-2.29207a3.61385,3.61385,0,0,1,1.0676-2.19508C16.70754,17.50186,17.28656,14.76154,17.08243,14.15063Z" style="fill:#e65100"/><path d="M20.5178,17.61363c.58839-.52272,1.01174-2.45657,1.49183-3.362.78495-1.48036,4.79777-2.98858,3.13633-5.44526C23.5956,6.514,22.90615,7.14777,22.00963,5.52687c-.8405-1.45324-1.07229-1.76432-3.15381-1.76432a7.68361,7.68361,0,0,1-2.29541-1.12391A3.07133,3.07133,0,0,0,14.531,2.00142c-3.97961,0-4.90069-.09154-5.85335,1.19421,0,0,4.42915-1.84092,8.0258.53323,1.21217,1.63452,2.4409,4.61056,1.6114,9.63921a8.7861,8.7861,0,0,0,.09349,3.22857,1.49579,1.49579,0,0,0,.09567.4662s4.62114,9.88234,9.2218,12.92211H29S23.13293,22.617,20.5178,17.61363Z" style="fill:#e65100"/><path d="M5.03537,16.05091A2.496,2.496,0,0,0,3.8587,12.80916a3.00235,3.00235,0,0,1,.56035,3.18592c-.56035,1.11788,0,3.2418,2.07314,2.62695C6.49219,18.622,4.08282,18.73386,5.03537,16.05091Z" style="fill:#e65100"/><path d="M9.73591,23.933a9.63213,9.63213,0,0,0,8.41076-.28055c3.19388-1.73261,3.787-3.73156,3.45081-4.12288a2.42444,2.42444,0,0,1,2.05269,1.03673c.56037.83838-.46057,3.64516-5.16723,5.60142-4.42655,1.78859-7.84762.97411-8.63206.19158C9.12247,25.57678,9.73591,23.933,9.73591,23.933Z" style="fill:#b71c1c"/><path d="M3.1863,10.7411c-.61634.61483.39223,2.45932,1.62492,3.01821C6.212,14.37417,8.22915,11.97076,7.83693,11.3,7.38868,10.40575,4.475,9.45555,3.1863,10.7411Z" style="fill:#b71c1c"/></svg>

<svg xmlns="http://www.w3.org/2000/svg" viewBox="0 0 32 32"><path fill="#e65100" d="M8.454 3.084c-.897-.112-1.438.473-2.502 2.43-1.457 2.682-3.888 1.135-1.765 5.275a4.7 4.7 0 0 0 .759 1.122l5.749-9.219c-.84-.614-1.513.448-2.241.392"/><path fill="#ffcc80" d="m28.565 29.985-5.982-8.28a1.67 1.67 0 0 0-.57-1.362c-1.794-1.789-2.69-3.51-1.905-6.975a3.94 3.94 0 0 0-1.326-3.766 29 29 0 0 0 .206-3.22s-.673-2.907-2.354-3.13c0 0-4.426-2.236-7.956.279S7.95 5.71 5.82 8.897a4.5 4.5 0 0 0-.444.867 7 7 0 0 0-1.237.307c-1.4.56-1.344 2.07.56 3.635a1 1 0 0 0 .29.148 8.2 8.2 0 0 1-.29 2.198c-.595 1.674.853 3.91 3.024 1.789a7 7 0 0 0 1.648.942 8.1 8.1 0 0 1 .707 2.522l-.558 8.68Z"/><path fill="#3e2723" d="M8.651 9.017a.803.803 0 0 1-.807-.805v-1.88a.807.807 0 0 1 1.615 0v1.88a.803.803 0 0 1-.808.805m5.314 0a.814.814 0 0 1-.813-.811V6.339a.814.814 0 0 1 1.627 0v1.948a.8.8 0 0 1-.814.73"/><path fill="#e65100" d="M17.082 14.15a6.06 6.06 0 0 1-4.818 4.528 4.75 4.75 0 0 1-5.828-3.13 3.8 3.8 0 0 0 2.999 3.679c.84 1.302.355 3.547.307 4.874a5.4 5.4 0 0 1-.061.84l-1.08 5.044 5.421.015c-.724-.397-1.02-2.476-1.14-3.901l-.079-1.405a1.415 1.415 0 0 1 .974-1.432c2.796-1.81-.672-1.789-.672-2.292a3.6 3.6 0 0 1 1.068-2.195c2.535-1.273 3.114-4.013 2.91-4.624"/><path fill="#e65100" d="M20.518 17.614c.588-.523 1.012-2.457 1.492-3.362.785-1.48 4.797-2.989 3.136-5.446-1.55-2.292-2.24-1.658-3.136-3.28-.84-1.452-1.073-1.763-3.154-1.763a7.7 7.7 0 0 1-2.296-1.124A3.07 3.07 0 0 0 14.531 2c-3.98 0-4.9-.091-5.853 1.195 0 0 4.429-1.841 8.025.533 1.213 1.634 2.441 4.61 1.612 9.64a8.8 8.8 0 0 0 .093 3.228 1.5 1.5 0 0 0 .096.466s4.621 9.882 9.222 12.922H29s-5.867-7.368-8.482-12.371M5.035 16.05a2.496 2.496 0 0 0-1.176-3.24 3 3 0 0 1 .56 3.185c-.56 1.118 0 3.242 2.073 2.627 0 0-2.41.112-1.457-2.571"/><path fill="#b71c1c" d="M9.736 23.933a9.63 9.63 0 0 0 8.41-.28c3.195-1.733 3.788-3.732 3.451-4.123a2.42 2.42 0 0 1 2.053 1.036c.56.839-.46 3.645-5.167 5.602-4.427 1.788-7.848.974-8.632.191-.729-.782-.115-2.426-.115-2.426m-6.55-13.192c-.616.615.393 2.46 1.625 3.018 1.401.615 3.418-1.788 3.026-2.459-.448-.894-3.362-1.844-4.65-.559"/></svg>
